icons/midnadark/actions/24/skg-chart-bubble.svg

<?xml version="1.0" encoding="UTF-8" standalone="no"?>
<!-- Created with Inkscape (http://www.inkscape.org/) -->

<svg
   xmlns:dc="http://purl.org/dc/elements/1.1/"
   xmlns:cc="http://creativecommons.org/ns#"
   xmlns:rdf="http://www.w3.org/1999/02/22-rdf-syntax-ns#"
   xmlns:svg="http://www.w3.org/2000/svg"
   xmlns="http://www.w3.org/2000/svg"
   xmlns:sodipodi="http://sodipodi.sourceforge.net/DTD/sodipodi-0.dtd"
   xmlns:inkscape="http://www.inkscape.org/namespaces/inkscape"
   width="22"
   height="22"
   id="svg4355"
   version="1.1"
   inkscape:version="0.91 r13725"
   sodipodi:docname="skg-chart-bubble.svg">
  <defs
     id="defs4357">
    <style
       type="text/css"
       id="current-color-scheme">
      .ColorScheme-Text {
        color:#f2f2f2;
      }
      .ColorScheme-Background {
        color:#eff0f1;
      }
      .ColorScheme-Highlight {
        color:#3daee9;
      }
      .ColorScheme-ViewText {
        color:#31363b;
      }
      .ColorScheme-ViewBackground {
        color:#fcfcfc;
      }
      .ColorScheme-ViewHover {
        color:#93cee9;
      }
      .ColorScheme-ViewFocus{
        color:#3daee9;
      }
      .ColorScheme-ButtonText {
        color:#31363b;
      }
      .ColorScheme-ButtonBackground {
        color:#eff0f1;
      }
      .ColorScheme-ButtonHover {
        color:#93cee9;
      }
      .ColorScheme-ButtonFocus{
        color:#3daee9;
      }
      </style>
  </defs>
  <sodipodi:namedview
     id="base"
     pagecolor="#ffffff"
     bordercolor="#666666"
     borderopacity="1.0"
     inkscape:pageopacity="0.0"
     inkscape:pageshadow="2"
     inkscape:zoom="23.388096"
     inkscape:cx="3.6746588"
     inkscape:cy="6.3556961"
     inkscape:document-units="px"
     inkscape:current-layer="layer1"
     showgrid="true"
     width="0px"
     height="0px"
     fit-margin-top="0"
     fit-margin-left="0"
     fit-margin-right="0"
     fit-margin-bottom="0"
     inkscape:window-width="1920"
     inkscape:window-height="1023"
     inkscape:window-x="0"
     inkscape:window-y="0"
     inkscape:window-maximized="1"
     inkscape:showpageshadow="false"
     inkscape:snap-bbox="true"
     inkscape:snap-smooth-nodes="false"
     inkscape:object-nodes="true"
     showguides="true"
     inkscape:guide-bbox="true">
    <inkscape:grid
       type="xygrid"
       id="grid4119" />
    <sodipodi:guide
       position="2.0000011,19.999996"
       orientation="18,0"
       id="guide4125" />
    <sodipodi:guide
       position="2.0000011,1.9999962"
       orientation="0,18"
       id="guide4127" />
    <sodipodi:guide
       position="3.0000011,18.999996"
       orientation="16,0"
       id="guide4133" />
    <sodipodi:guide
       position="3.0000011,2.9999962"
       orientation="0,16"
       id="guide4135" />
    <sodipodi:guide
       position="19.000001,2.9999962"
       orientation="-16,0"
       id="guide4137" />
    <sodipodi:guide
       position="3.0000011,18.999996"
       orientation="0,16"
       id="guide4122" />
    <sodipodi:guide
       position="20,12"
       orientation="1,0"
       id="guide4156" />
  </sodipodi:namedview>
  <metadata
     id="metadata4360">
    <rdf:RDF>
      <cc:Work
         rdf:about="">
        <dc:format>image/svg+xml</dc:format>
        <dc:type
           rdf:resource="http://purl.org/dc/dcmitype/StillImage" />
        <dc:title></dc:title>
      </cc:Work>
    </rdf:RDF>
  </metadata>
  <g
     inkscape:label="Capa 1"
     inkscape:groupmode="layer"
     id="layer1"
     transform="translate(-544.57141,-742.93359)">
    <g
       transform="translate(-6.7143,135.28571)"
       id="layer1-5"
       inkscape:label="Capa 1">
      <path
         sodipodi:nodetypes="cccccccccccccccccccccccccccccccc"
         inkscape:connector-curvature="0"
         id="path4154"
         transform="translate(551.28571,607.64788)"
         d="m 4,3 0,6 0,1 0,5 0,1 0,1 -1,0 0,1 1,0 0,1 1,0 0,-1 13.292969,0 L 19,18 19,17.292969 19,17 18.707031,17 17.292969,17 5,17 5,15.431641 5,15.423828 5,15 l 0,-2.576172 0,-1 L 5,11 5,10 5,9 5,6 5,5.9921875 5,5 5,3 Z"
         style="opacity:1;fill:#f2f2f2;fill-opacity:1;stroke:none;stroke-width:2.79999995;stroke-miterlimit:4;stroke-dasharray:none;stroke-opacity:0.55026455" />
      <circle
         r="2.2186046"
         cy="614.09705"
         cx="566.33405"
         id="path3350"
         style="opacity:1;fill:#f2f2f2;fill-opacity:1;fill-rule:evenodd;stroke:none;stroke-width:4;stroke-linecap:round;stroke-linejoin:bevel;stroke-miterlimit:4;stroke-dasharray:none;stroke-opacity:0.94466397" />
      <circle
         r="0.8063584"
         cy="616.21851"
         cx="559.27911"
         id="path3350-9"
         style="opacity:1;fill:#f2f2f2;fill-opacity:1;fill-rule:evenodd;stroke:none;stroke-width:4;stroke-linecap:round;stroke-linejoin:bevel;stroke-miterlimit:4;stroke-dasharray:none;stroke-opacity:0.94466397" />
      <circle
         r="1.4709449"
         cy="620.28912"
         cx="563.18982"
         id="path3350-9-2"
         style="opacity:1;fill:#f2f2f2;fill-opacity:1;fill-rule:evenodd;stroke:none;stroke-width:4;stroke-linecap:round;stroke-linejoin:bevel;stroke-miterlimit:4;stroke-dasharray:none;stroke-opacity:0.94466397" />
    </g>
  </g>
</svg>

<svg xmlns="http://www.w3.org/2000/svg" viewBox="0 0 22 22"><g transform="translate(-551.29-607.65)" fill="#f2f2f2"><path transform="translate(551.29 607.65)" d="m4 3v6 1 5 1 1h-1v1h1v1h1v-1h13.293.707v-.707-.293h-.293-1.414-12.293v-1.568-.008-.424-2.576-1-.424-1-1-3-.008-.992-2"/><g fill-rule="evenodd"><circle r="2.219" cy="614.1" cx="566.33"/><circle r=".806" cy="616.22" cx="559.28"/><circle r="1.471" cy="620.29" cx="563.19"/></g></g></svg>
